X: 26920
T: Miss Ada Crawford
R: strathspey
M: 4/4
K: Gmajor
d|:B>GA>G E<GD>G|E<GD>G A2 A>d|B>GA>G E<GD>d|B<dD>E G2 G>d|
B>GA>G E<GD>G|E<GD>G A2 A>d|B>GA>G E<GD>d|B<dD>E G2 G>d:|
|:(3BAG d>G B>Gd>G|(3BAG d>G A2 A>d|(3BAG d>G B>Gd>c|B<dA>B G2 G>d|
(3BAG d>G B>Gd>G|(3BAG d>G A2 A>d|B<dA>B G>ED>d|B<dD>E G2 G>d:|

